!!!!SEGMENT: pl-wtm--r-259-m--008_moniuszko-stanislaw--msza-agnus.krn
!!!cenid: 18xx:2534
!!!COM: Moniuszko, Stanisław
!!!COM-rismid: pe30008351
!!!CDT: 1819/05/05-1872/06/04
!!!CNT: Polish
!!!OPR: Msza
!!!OTL: Agnus
!!!OMV: 008
!!!PDT:
!!!AGN: Sacred; Mass
!!!SMS-siglum: PL-Wtm
!!!SMS-shelfmark: R 259/M
!!!SMS-shelfwork: 001-008 M
!!!SMS-variant:
!!!SMS-altvar:
!!!NIFC-rismid: 1001095367
!!!URL-scan: http://repozytorium.nifc.pl/skany/pl-wtm-nut--r259m
!!!ONB-nifc: UWAGA: części Mszy: 1. Kyrie, 2. Gloria, 3. Graduale, 4. Credo, 5. Offertorium, 6. Sanctus, 7. Benedictus, 8. Agnus
!!!key:
**kern	**dynam	**kern	**dynam	**kern	**dynam	**kern	**dynam	**kern	**dynam	**kern	**kern	**dynam
*part6	*part6	*part5	*part5	*part4	*part4	*part3	*part3	*part2	*part2	*part1	*part1	*part1
*staff7	*	*staff6	*	*staff5	*	*staff4	*	*staff3	*	*staff2	*staff1	*
*Ibass	*	*Icello	*	*Iviola	*	*Ivioln	*	*Ivioln	*	*Iorgan	*Iorgan	*
*I"CB.	*	*I"Vcla	*	*I"Vla.	*	*I"V 2	*	*I"V 1.	*	*I"Organo.	*I"Organo.	*
*I'cb	*	*I'vlc	*	*I'vla	*	*I'vl 2	*	*I'vl 1	*	*I'org	*I'org	*
*clefF4	*	*clefF4	*	*clefC3	*	*clefG2	*	*clefG2	*	*clefF4	*clefG2	*
*Trd0c0	*	*	*	*	*	*	*	*	*	*	*	*
*k[b-e-a-]	*	*k[b-e-a-]	*	*k[b-e-a-]	*	*k[b-e-a-]	*	*k[b-e-a-]	*	*k[b-e-a-]	*k[b-e-a-]	*
*E-:	*	*E-:	*	*E-:	*	*E-:	*	*E-:	*	*E-:	*E-:	*
*M3/4	*	*M3/4	*	*M3/4	*	*M3/4	*	*M3/4	*	*M3/4	*M3/4	*
=1	=1	=1	=1	=1	=1	=1	=1	=1	=1	=1	=1	=1
*2\right	*	*2\right	*	*2\right	*	*2\right	*	*2\right	*	*2\right	*2\right	*
*all\right	*	*all\right	*	*all\right	*	*all\right	*	*all\right	*	*all\right	*all\right	*
!	!	!	!	!	!	!	!	!	!	!	!LO:TX:a:i:t=Solo	!
2.ryy	.	2.ryy	.	2.ryy	.	2.ryy	.	2.ryy	.	2.r	8r	.
.	.	.	.	.	.	.	.	.	.	.	(>8g/L	p
.	.	.	.	.	.	.	.	.	.	.	8a-/	.
.	.	.	.	.	.	.	.	.	.	.	8g/	.
.	.	.	.	.	.	.	.	.	.	.	8en/	.
.	.	.	.	.	.	.	.	.	.	.	8f/J	.
=2	=2	=2	=2	=2	=2	=2	=2	=2	=2	=2	=2	=2
2.ryy	.	2.ryy	.	2.ryy	.	2.ryy	.	2.ryy	.	2.r	8dd\L	.
.	.	.	.	.	.	.	.	.	.	.	8cc\	.
.	.	.	.	.	.	.	.	.	.	.	8bn\	.
.	.	.	.	.	.	.	.	.	.	.	8cc\	.
.	.	.	.	.	.	.	.	.	.	.	8ff\	.
.	.	.	.	.	.	.	.	.	.	.	8ee-\J	.
=3	=3	=3	=3	=3	=3	=3	=3	=3	=3	=3	=3	=3
2.ryy	.	2.ryy	.	2.ryy	.	2.ryy	.	2.ryy	.	2.r	8dd/L	.
.	.	.	.	.	.	.	.	.	.	.	8cc/	.
.	.	.	.	.	.	.	.	.	.	.	8bn/	.
.	.	.	.	.	.	.	.	.	.	.	8dd/	.
!	!	!	!LO:DY:b	!	!LO:DY:b	!	!LO:DY:b	!	!LO:DY:b:t=p.	!	!	!
.	.	.	p	.	p	.	p	.	p	.	8f/	.
.	.	.	.	.	.	.	.	.	.	.	8a-/J)	.
=4	=4	=4	=4	=4	=4	=4	=4	=4	=4	=4	=4	=4
*	*	*2\right	*	*2\right	*	*	*	*	*	*	*	*
!	!	!	!	!	!	!	!	!LO:TX:a:i:t=V. Imo	!	!	!	!
2.r	.	(>2.G\	.	(>2.e- 2.c\	.	2.e- [<2.c/	.	(>2g [<2G/	.	2.r	4g/	.
.	.	.	.	.	.	.	.	.	.	.	4r	.
.	.	.	.	.	.	.	.	4f#X 4G/])	.	.	4r	.
=5	=5	=5	=5	=5	=5	=5	=5	=5	=5	=5	=5	=5
2.r	.	4A-\)	.	4d 4c\)	.	4d 4c/]	.	4fn 4A-/	.	2.r	2.r	.
.	.	4r	.	4r	.	4r	.	4r	.	.	.	.
.	.	4r	.	4r	.	4r	.	4r	.	.	.	.
=6	=6	=6	=6	=6	=6	=6	=6	=6	=6	=6	=6	=6
2.ryy	.	(2.A-^>\	.	[>2.f 2.A-^>\	.	(<2.f 2.A-/	.	(>2dd [<2d^</	.	2.ryy	2.ryy	.
.	.	.	.	.	.	.	.	4cc 4d/])	.	.	.	.
=7	=7	=7	=7	=7	=7	=7	=7	=7	=7	=7	=7	=7
2.ryy	.	4G\)	.	4f] 4G\	.	4f 4G/)	.	4bn 4d/	.	2.ryy	2.ryy	.
.	.	4r	.	4r	.	4r	.	4r	.	.	.	.
!	!	!	!	!	!	!	!LO:DY:b	!	!LO:DY:b	!	!	!
.	.	4r	.	4r	.	4r	mf	4r	mf	.	.	.
=8	=8	=8	=8	=8	=8	=8	=8	=8	=8	=8	=8	=8
!	!	!	!LO:HP:b	!	!	!	!	!	!	!	!	!
!	!	!	!LO:DY:b:rj	!	!	!	!	!	!LO:HP:b	!	!	!
2.r	.	4c\	mf >	4e- 4c\	mf	4e- 4c/	.	4cc 4e-/	>	2.ryy	2.ryy	.
!	!	!	!	!	!LO:HP:a	!	!LO:HP:b	!	!	!	!	!
.	.	(>8G\L	.	(<8G/L	>	(<8g/L	>	(<8g/L	.	.	.	.
.	.	8F\	.	8F/	.	8f/	.	8f/	.	.	.	.
.	.	8E-\	.	8E-/	.	8e-/	.	8e-/	.	.	.	.
.	.	8A-\J)	]	8c/J)	]]	8c/J)	]]	8f/J)	]	.	.	.
=9	=9	=9	=9	=9	=9	=9	=9	=9	=9	=9	=9	=9
!	!	!	!LO:DY:b	!	!	!	!LO:DY:b:rj	!	!LO:DY:b	!	!	!
2.r	.	2.G\	p	(>2c\	p	(<4e-/	p	2.g/	p	2.ryy	2.ryy	.
.	.	.	.	.	.	2d/)	.	.	.	.	.	.
.	.	.	.	4Bn\)	.	.	.	.	.	.	.	.
!!LO:PB:g=original
=10	=10	=10	=10	=10	=10	=10	=10	=10	=10	=10	=10	=10
2.r	.	[<2.C/	.	2.c\	.	2.e-/	.	[>2.g [<2.G/	.	2.r	2.r	.
=11	=11	=11	=11	=11	=11	=11	=11	=11	=11	=11	=11	=11
2.r	.	4C/]	.	4c\	.	4e-/	.	4g] 4G/]	.	2.r	8r	.
.	.	.	.	.	.	.	.	.	.	.	(>8g/	.
.	.	4r	.	4r	.	4r	.	4r	.	.	8b-/L	.
.	.	.	.	.	.	.	.	.	.	.	8a-/	.
.	.	4r	.	4r	.	4r	.	4r	.	.	8f#X/	.
.	.	.	.	.	.	.	.	.	.	.	8g/J	.
=12	=12	=12	=12	=12	=12	=12	=12	=12	=12	=12	=12	=12
2.r	.	2.r	.	2.r	.	2.r	.	2.r	.	2.ryy	8ee-\L	.
.	.	.	.	.	.	.	.	.	.	.	8dd\	.
.	.	.	.	.	.	.	.	.	.	.	8cc\	.
.	.	.	.	.	.	.	.	.	.	.	8ee-\	.
.	.	.	.	.	.	.	.	.	.	.	8.gg\	.
.	.	.	.	.	.	.	.	.	.	.	16ff\Jk	.
=13	=13	=13	=13	=13	=13	=13	=13	=13	=13	=13	=13	=13
2.r	.	2.r	.	2.r	.	2.r	.	2.r	.	2.ryy	8ee-\L	.
.	.	.	.	.	.	.	.	.	.	.	8bn\	.
.	.	.	.	.	.	.	.	.	.	.	8dd\	.
.	.	.	.	.	.	.	.	.	.	.	8cc\	.
.	.	.	.	.	.	.	.	.	.	.	8g\	.
!	!	!	!	!	!LO:DY:b	!	!LO:DY:b	!	!LO:DY:b	!	!	!
.	.	.	.	.	p	.	p	.	p	.	8a-\J)	.
=14	=14	=14	=14	=14	=14	=14	=14	=14	=14	=14	=14	=14
!	!	!	!LO:DY:b:rj	!	!	!	!	!	!	!	!	!
2.r	.	(>2.B-\	p	[>2.e-\	.	(<2g/	.	(<2b-/	.	2.ryy	[>4b-\	.
.	.	.	.	.	.	.	.	.	.	.	8b-\]	.
.	.	.	.	.	.	.	.	.	.	.	8r	.
.	.	.	.	.	.	4f#X/	.	4an/	.	.	4r	.
=15	=15	=15	=15	=15	=15	=15	=15	=15	=15	=15	=15	=15
2.r	.	4c-X\)	.	4e-\]	.	4fn/)	.	4a-X/)	.	2.ryy	2.ryy	.
.	.	4r	.	4r	.	4r	.	4r	.	.	.	.
.	.	4r	.	4r	.	4r	.	4r	.	.	.	.
=16	=16	=16	=16	=16	=16	=16	=16	=16	=16	=16	=16	=16
*	*	*	*	*	*	*	*	*2\right	*	*	*	*
2.r	.	2.c-X^>\	.	(2d^>\	.	2.a-^</	.	(>2ff^>\	.	2.ryy	2.ryy	.
.	.	.	.	4e-\)	.	.	.	4ee-\)	.	.	.	.
=17	=17	=17	=17	=17	=17	=17	=17	=17	=17	=17	=17	=17
2.r	.	[>4B-\	.	(>4f\	.	(<4a-/	.	(>4ee-\	.	2.r	2.r	.
.	.	8B-\]	.	8B-/)	.	8f/)	.	8dd\)	.	.	.	.
.	.	8r	.	8r	.	8r	.	8r	.	.	.	.
.	.	4r	.	4r	.	4r	.	4r	.	.	.	.
=18	=18	=18	=18	=18	=18	=18	=18	=18	=18	=18	=18	=18
*	*	*	*	*	*	*	*	*	*	*^	*	*
2.r	.	2.r	.	2.r	.	2.r	.	2.r	.	2.C/	2.rEE	2.g 2.e-/	.
=19	=19	=19	=19	=19	=19	=19	=19	=19	=19	=19	=19	=19	=19
2.ryy	.	2.ryy	.	2.ryy	.	2.ryy	.	2.ryy	.	2.GG/	2.rEE	2.b- 2.e- 2.B-/	.
*	*	*	*	*	*	*	*	*	*	*v	*v	*	*
=20	=20	=20	=20	=20	=20	=20	=20	=20	=20	=20	=20	=20
2.ryy	.	2.ryy	.	2.ryy	.	2.ryy	.	2.ryy	.	2AA-/	2.e- 2.c/	.
.	.	.	.	.	.	.	.	.	.	4ryy	.	.
!!LO:PB:g=original
=21	=21	=21	=21	=21	=21	=21	=21	=21	=21	=21	=21	=21
*	*	*	*	*	*	*	*	*	*	*^	*	*
2.r	.	2.r	.	2.r	.	2.r	.	2.r	.	2.BB-/	2.rEE	2.g 2.e- 2.G/	.
=22	=22	=22	=22	=22	=22	=22	=22	=22	=22	=22	=22	=22	=22
*	*	*	*	*	*	*	*	*	*	*	*	*^	*
*	*	*	*	*	*	*	*	*	*	*	*2\right	*	*	*
!	!LO:DY:b:rj	!	!LO:DY:b:rj	!	!LO:DY:b:rj	!	!LO:DY:b:rj	!	!LO:DY:b:rj	!	!	!	!	!
4E-\	pp	(>8E-\L	pp	(<8E-/L	pp	4.e-/	pp	(<4.g/	pp	8E-/L	2.EE-\	2g/	(<2.e- 2.B-\	.
.	.	8BB-\J)	.	8B-/J)	.	.	.	.	.	8BB-/J	.	.	.	.
4r	.	2E-\	.	2E-/	.	.	.	.	.	4E-/	.	.	.	.
.	.	.	.	.	.	8B-/L	.	8B-/L)	.	.	.	.	.	.
4r	.	.	.	.	.	8e-/	.	(<8g-X/	.	4rcyy	.	4g-X/	.	.
.	.	.	.	.	.	8B-/J	.	8B-/J)	.	.	.	.	.	.
=23	=23	=23	=23	=23	=23	=23	=23	=23	=23	=23	=23	=23	=23	=23
*rep	*	*	*	*	*	*	*	*	*	*	*	*	*	*
4E-\	.	(>8C\L	.	(<8C/L	.	4.An/	.	(<4.f/	.	8C/L	2.EE-^<\	2.f 2.c/	2An\	.
.	.	8F\J)	.	8F/J)	.	.	.	.	.	8F/J	.	.	.	.
4r	.	2E-\	.	2E-/	.	.	.	.	.	2E-/	.	.	.	.
.	.	.	.	.	.	8c/L	.	8c/L)	.	.	.	.	.	.
4r	.	.	.	.	.	8f/	.	(<8f/	.	.	.	.	4A-X\)	.
.	.	.	.	.	.	8c/J	.	8c/J)	.	.	.	.	.	.
*Xrep	*	*	*	*	*	*	*	*	*	*	*	*	*	*
=24	=24	=24	=24	=24	=24	=24	=24	=24	=24	=24	=24	=24	=24	=24
4E-^>\	.	(<8AA-/L	.	(<8A-/L	.	4.c-X^</	.	4.a-^</	.	8AA-/L	2.EE-^<\	2.a- 2.e-/	2.c-X\	.
.	.	8E-/J)	.	8E-/J)	.	.	.	.	.	8E-/J	.	.	.	.
4r	.	2E-/|	.	2E-/	.	.	.	.	.	[>2E-/	.	.	.	.
.	.	.	.	.	.	(<8c-/L	.	(<8c-X/L	.	.	.	.	.	.
4r	.	.	.	.	.	8e-/)	.	8e-/	.	.	.	.	.	.
!	!LO:DY:b	!	!	!	!	!	!	!	!	!	!	!	!	!
.	p	.	.	.	.	8a-/J	.	8a-/J)	.	.	.	.	.	.
=25	=25	=25	=25	=25	=25	=25	=25	=25	=25	=25	=25	=25	=25	=25
4E-\	.	(<8E-/L	.	(<8B-/L	.	(<4.B-/	.	(<4.g-X/	.	8E-/L]	2.EE-\	2.g-X/	(<2e- 2B-\	.
.	.	8BB-/	.	8E-/J)	.	.	.	.	.	8BB-/J	.	.	.	.
4r	.	8E-/	.	(<8E-/L	.	.	.	.	.	4E-/	.	.	.	.
.	.	8G-X/J)	.	8G-X/	.	8e-/L)	.	8f/L)	.	.	.	.	.	.
4r	.	(>8B-\L	.	8B-/	.	(<8B-/	.	(<8B-/	.	4rcyy	.	.	4e-\)	.
.	.	8E-\J)	.	8E-/J)	.	8e-/J)	.	8e-/J)	.	.	.	.	.	.
*	*	*	*	*	*	*	*	*	*	*v	*v	*	*	*
=26	=26	=26	=26	=26	=26	=26	=26	=26	=26	=26	=26	=26	=26
(>4E-^>\	.	8E-^>\	.	8E-^</	.	(<4a-^</	.	(<[<2cc-X^>/	.	8A-/L	2ryy	[>2cc-X/ 2a- 2e-/	.
.	.	4E-\	.	4E-/	.	.	.	.	.	8E-/	.	.	.
4E-\|	.	.	.	.	.	4e-/	.	.	.	8A-/	.	.	.
.	.	4E-\	.	4E-/	.	.	.	.	.	8E-/	.	.	.
4E-\)|	.	.	.	.	.	4dn/	.	8cc-/L]	.	8F/	8cc-/L]	4f 4dn\	.
.	.	[>8E-\	.	[<8E-/	.	.	.	8b-/J)	.	8E-/J	8b-/J	.	.
=27	=27	=27	=27	=27	=27	=27	=27	=27	=27	=27	=27	=27	=27
*rep	*	*	*	*	*	*	*	*	*	*	*	*	*
(>4E-^>\	.	8E-^>\]	.	8E-^</]	.	2d-X^</	.	(<[>2b-^>/	.	8B-/L	[>2b-/	2g 2d-X\	.
.	.	4E-\	.	4E-/	.	.	.	.	.	8E-/	.	.	.
4E-\|	.	.	.	.	.	.	.	.	.	8B-/	.	.	.
.	.	4E-\	.	4E-/	.	.	.	.	.	8E-/	.	.	.
4E-\)|	.	.	.	.	.	4c-X/)	.	8b-/L]	.	8c-X/	8b-/L]	4e-\	.
.	.	[>8E-\	.	[<8E-/	.	.	.	8a-/J)	.	8E-/J	8a-/J	.	.
*Xrep	*	*	*	*	*	*	*	*	*	*	*	*	*
=28	=28	=28	=28	=28	=28	=28	=28	=28	=28	=28	=28	=28	=28
*rep	*	*	*	*	*	*	*	*	*	*	*	*	*
!	!	!	!	!	!	!	!	!	!	!LO:TX:t=P:problem=takt wykreślony razem z dwoma poprzednimi, ale w przeciwieństwie do tamtych tu nie zanotowano nowej wersji	!	!	!
(>4E-^\	.	8E-\]	.	8E-/]	.	(<4c-X/	.	(<4a-/	.	(<4c-X/	4a-/	2.e-\	.
.	.	4E-\	.	4E-/	.	.	.	.	.	.	.	.	.
4E-\|	.	.	.	.	.	4B-/	.	4g/	.	4B-/	4g/	.	.
.	.	4E-\	.	4E-/	.	.	.	.	.	.	.	.	.
4E-\)|	.	.	.	.	.	4A-/)	.	4a-/	.	4A-/)	4a-/	.	.
.	.	[>8E-\	.	[<8E-/	.	.	.	.	.	.	.	.	.
*Xrep	*	*	*	*	*	*	*	*	*	*	*	*	*
=29	=29	=29	=29	=29	=29	=29	=29	=29	=29	=29	=29	=29	=29
*	*	*	*	*	*	*	*	*	*	*^	*	*	*
4E-\	.	8E-\]	.	8E-/]	.	(<8G/L	.	2b-/	.	2.G/	4EE-\	2b-/	4.g\	.
.	.	4E-\	.	4E-/	.	16B-/L	.	.	.	.	.	.	.	.
.	.	.	.	.	.	16e-/JJ	.	.	.	.	.	.	.	.
4E-\	.	.	.	.	.	8g/L	.	.	.	.	4EE-\	.	.	.
.	.	(>8E-\L	.	(<8E-/L	.	8a-^</	.	.	.	.	.	.	8a-\L	.
4Dn\	.	8Dn\	.	8Dn/	.	8g/	.	4bn/)	.	.	4DDn\	4bn/	8g\	.
.	.	8G\J)	.	8G/J)	.	8f/J)	.	.	.	.	.	.	8f\J	.
*	*	*	*	*	*	*	*	*	*	*	*	*v	*v	*
=30	=30	=30	=30	=30	=30	=30	=30	=30	=30	=30	=30	=30	=30
!	!	!	!	!	!	!	!	!	!	!	!	!LO:TX:a:i:t=a:color=red	!
[<2.C^</	.	[>2.C [>2.CC/	.	2.G 2.C^</	.	(<8e-/L	.	(>8cc\L	.	[>2.c 2.G [<2.C/	[<2.CC\	(>8cc/L	.
.	.	.	.	.	.	8g/	.	8g\	.	.	.	8g/	.
.	.	.	.	.	.	8a-/	.	8a-\	.	.	.	8a-/	.
.	.	.	.	.	.	8g/	.	8g\	.	.	.	8g/	.
.	.	.	.	.	.	8e-/	.	8e-\	.	.	.	8e-/	.
.	.	.	.	.	.	8cc/J)	.	8cc\J)	.	.	.	8cc/J	.
=31	=31	=31	=31	=31	=31	=31	=31	=31	=31	=31	=31	=31	=31
!	!	!	!	!	!	!LO:TX:b:i:t=col Im	!	!	!	!	!	!	!
2.C^</_<	.	2.C_> 2.CC^</_>	.	2.A- 2.C/	.	(y>8ddn\Lyy	.	(>8ddn\L	.	2.c] 2.A- 2.F 2.C/_<	2.CC\_<	8ddn\L	.
.	.	.	.	.	.	8cc\yy	.	8cc\	.	.	.	8cc\	.
.	.	.	.	.	.	8bn\yy	.	8bn\	.	.	.	8bn\	.
.	.	.	.	.	.	8cc\yy	.	8cc\	.	.	.	8cc\	.
.	.	.	.	.	.	8dd\yy	.	8dd\	.	.	.	8dd\	.
.	.	.	.	.	.	8ee-\J)yy	.	8ee-\J)	.	.	.	8ee-\J	.
!!LO:PB:g=original
=32	=32	=32	=32	=32	=32	=32	=32	=32	=32	=32	=32	=32	=32
*	*	*	*	*	*	*	*	*	*	*	*	*^	*
2.C^</_<	.	2.C_> 2.CC^</_>	.	2.d 2.G/	.	(y>8gg\Lyy	.	(>8gg\L	.	2.g> 2.d> 2.G\	2.C_< 2.CC\_<	8gg/L	8gg\L	.
.	.	.	.	.	.	8ff\yy	.	8ff\	.	.	.	8ff/	8ff\	.
.	.	.	.	.	.	8ee-\yy	.	8ee-\	.	.	.	8ee-/	8ee-\	.
.	.	.	.	.	.	8dd\yy	.	8dd\	.	.	.	8dd/	8dd\	.
.	.	.	.	.	.	8ee-\yy	.	8ee-\	.	.	.	8ee-/	8ee-\	.
.	.	.	.	.	.	8ff\J)yy	.	8ff\J)	.	.	.	8ff/J	8ff\J	.
=33	=33	=33	=33	=33	=33	=33	=33	=33	=33	=33	=33	=33	=33	=33
2.C^</]	.	2.C] 2.CC^/]	.	2.e- 2.G/	.	(y>8aa-\L	.	(>8aa-\L	.	2.e-> 2.c> 2.G/	2.C] 2.CC\]	8aa-/L	8aa-\L	.
.	.	.	.	.	.	8gg\yy	.	8gg\	.	.	.	8gg/	8gg\	.
.	.	.	.	.	.	8ff\yy	.	8ff\	.	.	.	8ff/	8ff\	.
.	.	.	.	.	.	8ee-\yy	.	8ee-\	.	.	.	8ee-/	8ee-\	.
.	.	.	.	.	.	8dd\yy	.	8dd\	.	.	.	8dd/	8dd\	.
.	.	.	.	.	.	8cc\J)yy	.	8cc\J)	.	.	.	8cc/J	8cc\J	.
*	*	*	*	*	*	*	*	*	*	*	*	*v	*v	*
=34	=34	=34	=34	=34	=34	=34	=34	=34	=34	=34	=34	=34	=34
*2\right	*	*	*	*	*	*	*	*	*	*	*	*	*
!	!	!	!	!	!	!LO:S:color=green	!	!LO:S:color=green	!	!	!	!	!
2.G\	.	2.G\	.	2.d 2.Bn/	.	(y>8bn\Lyy	.	(>8bn\L	.	2.d 2.Bn 2.G/	2.GG\	8bn/L	.
.	.	.	.	.	.	8cc\yy	.	8cc\	.	.	.	8cc/	.
.	.	.	.	.	.	8dd\yy	.	8dd\	.	.	.	8dd/	.
.	.	.	.	.	.	8ff\yy	.	8ff\	.	.	.	8ff/	.
.	.	.	.	.	.	8ee-\yy	.	8ee-\	.	.	.	8ee-/)	.
.	.	.	.	.	.	8dd\J)yy	.	8dd\J)	.	.	.	8dd/J	.
=35	=35	=35	=35	=35	=35	=35	=35	=35	=35	=35	=35	=35	=35
2.A-\	.	2.A-\	.	2.c/	.	(y>8dd\Lyy	.	(>8dd\L	.	2.f> 2.c 2.A-/	2.AA-\	(>8dd/L	.
.	.	.	.	.	.	8cc\yy	.	8cc\	.	.	.	8cc/	.
.	.	.	.	.	.	8bn\yy	.	8bn\	.	.	.	8bn/	.
.	.	.	.	.	.	8cc\yy	.	8cc\	.	.	.	8cc/	.
.	.	.	.	.	.	8dd\yy	.	8dd\	.	.	.	8dd/	.
.	.	.	.	.	.	8ee-\J)yy	.	8ee-\J)	.	.	.	8ee-/J	.
=36	=36	=36	=36	=36	=36	=36	=36	=36	=36	=36	=36	=36	=36
!	!LO:HP:b	!	!LO:HP:b	!	!LO:HP:b	!LO:S:color=green	!LO:HP:b	!LO:S:color=green	!LO:HP:b	!	!	!	!
2.G\	<[	2.G\	<[	2.d 2.Bn\	<[	(y>8gg\Lyy	<	(>8gg\L	<	2.d 2.Bn 2.G/	2.GG\	8gg/L	.
.	.	.	.	.	.	8ff\yy	.	8ff\	.	.	.	8ff/	.
.	.	.	.	.	.	8een\yy	.	8een\	.	.	.	8een/	.
.	.	.	.	.	.	8ff\yy	.	8ff\	.	.	.	8ff/	.
.	.	.	.	.	.	8gg\yy	.	8gg\	.	.	.	8gg/	.
.	.	.	.	.	.	8aa-\Jyy	[	8aa-\J	[	.	.	8aa-/J	.
=37	=37	=37	=37	=37	=37	=37	=37	=37	=37	=37	=37	=37	=37
!	!LO:HP:b	!	!LO:HP:b	!	!LO:HP:b	!	!	!	!	!LO:TX:t=P:problem=pionowy łuk łączący składniki akordu na obu pięcioliniach	!	!	!
2.F\	>]	2.F\	>]	2.a- 2.c\	>]	8.ccc^>\L)yy	.	8.ccc^>\L)	.	2.f> 2.c> 2.A- 2.F/	2.FF\	8.ccc/L	.
.	.	.	.	.	.	16bb-\Kyy	.	16bb-\K	.	.	.	16bb-/K	.
!	!	!	!	!	!	!LO:S:color=green	!	!LO:S:color=green	!	!	!	!	!
.	.	.	.	.	.	(y>8aa-\yy	.	(>8aa-\	.	.	.	8aa-/	.
.	.	.	.	.	.	8gg\yy	.	8gg\	.	.	.	8gg/	.
.	.	.	.	.	.	8ff\yy	.	8ff\	.	.	.	8ff/	.
.	.	.	.	.	.	8ee-\Jyy	.	8ee-\J	.	.	.	8ee-/J	.
=38	=38	=38	=38	=38	=38	=38	=38	=38	=38	=38	=38	=38	=38
!	!	!	!	!	!	!LO:S:color=green	!LO:HP:b	!LO:S:color=green	!LO:HP:b	!LO:TX:t=P:problem=pionowy łuk łączący składniki akordu na obu pięcioliniach	!	!	!
2.BB-/	.	2.BB-/	.	(>4f\	.	(y>8dd\L)yy	>	(8dd\L)	>	2.f> 2.d> 2.B-/	2.BB-\	8dd/L	.
.	.	.	.	.	.	8cc\yy	.	8cc\	.	.	.	8cc/	.
.	.	.	.	2d\)	.	8b-\yy	.	8b-\	.	.	.	8b-/	.
.	.	.	.	.	.	8bn\yy	.	8bn\	.	.	.	8bn/	.
.	.	.	.	.	.	8cc\yy	]	8cc\	]	.	.	8cc/	.
.	.	.	.	.	.	8a-\J)yy	.	8a-\J)	.	.	.	8a-/J)	.
=39	=39	=39	=39	=39	=39	=39	=39	=39	=39	=39	=39	=39	=39
*	*	*	*	*	*	*	*	*	*	*	*	*^	*
!	!	!	!	!	!	!LO:S:color=green	!	!LO:S:color=green	!	!LO:TX:t=P:problem=pionowy łuk łączący składniki akordu na obu pięcioliniach	!	!	!	!
2.E-\	.	2.E-\	.	(>2e-\	.	(y8g\Lyy	.	(>8g\L	.	2.e- 2.B-/	2.E-\	(8g/L	(>2e-\	.
.	.	.	.	.	.	8b-\yy	.	8b-\	.	.	.	8b-/	.	.
.	.	.	.	.	.	8ee-\yy	.	8ee-\	.	.	.	8ee-/	.	.
.	.	.	.	.	.	8gg\yy	.	8gg\	.	.	.	8gg/	.	.
.	.	.	.	4g\)	.	8ff\yy	.	8ff\	.	.	.	8ff/	4g\)	.
.	.	.	.	.	.	8ee-\J)yy	.	8ee-\J)	.	.	.	8ee-/J	.	.
=40	=40	=40	=40	=40	=40	=40	=40	=40	=40	=40	=40	=40	=40	=40
!	!	!	!	!	!	!	!	!	!	!LO:TX:t=P:problem=pionowy łuk łączący składniki akordu na obu pięcioliniach	!	!	!	!
2.BB-/	.	2.BB-/	.	(>4g\	.	(y>8dd\Lyy	.	(>8dd\L	.	2.d 2.B-/	2.BB-\	8dd/L	(>4g\	.
.	.	.	.	.	.	8ee-\Jyy	.	8ee-\J	.	.	.	8ee-/J	.	.
.	.	.	.	4.f\	.	8ff\L)yy	.	8ff\L)	.	.	.	8ff/L	4f\)	.
.	.	.	.	.	.	(y>16dd\Lyy	.	(>16dd\L	.	.	.	16dd/L	.	.
.	.	.	.	.	.	16b-\JJ)yy	.	16b-\JJ)	.	.	.	16b-/JJ	.	.
.	.	.	.	.	.	(y<8f/Lyy	.	(<8f/L	.	.	.	8f/L	4rcyy	.
.	.	.	.	8g\)	.	8g/J)yy	.	8g/J)	.	.	.	8g/J)	.	.
!!LO:PB:g=original
=41	=41	=41	=41	=41	=41	=41	=41	=41	=41	=41	=41	=41	=41	=41
2.F\	.	2.F\	.	2a-\	.	(y>8a-\Lyy	.	(>8a-\L	.	(>2.c/	2.F\	(>8a-/L	4rc	.
.	.	.	.	.	.	8cc\yy	.	8cc\	.	.	.	8cc/	.	.
*	*	*	*	*	*	*	*	*	*	*	*	*	*2\left	*
.	.	.	.	.	.	8ff\yy	.	8ff\	.	.	.	8ff/	2a-\)	.
.	.	.	.	.	.	8aa-\yy	.	8aa-\	.	.	.	8aa-/	.	.
.	.	.	.	4a-\	.	8gg\yy	.	8gg\	.	.	.	8gg/	.	.
.	.	.	.	.	.	8ff\J)yy	.	8ff\J)	.	.	.	8ff/J	.	.
=42	=42	=42	=42	=42	=42	=42	=42	=42	=42	=42	=42	=42	=42	=42
!	!	!	!	!	!	!	!	!	!	!LO:TX:t=P:problem=pionowy łuk łączący składniki akordu na obu pięcioliniach	!	!	!	!
2C/	.	2.C/	.	(>4a-\	.	(y>8ee-\Lyy	.	(>8ee-\L	.	2c/	2C\	8ee-/L	(>4a- 4e-\	.
.	.	.	.	.	.	8ff\yy	.	8ff\	.	.	.	8ff/	.	.
.	.	.	.	4g\	.	8gg\)yy	.	8gg\)	.	.	.	8gg/	4g\)	.
.	.	.	.	.	.	(y>16ee-\Lyy	.	(>16ee-\L	.	.	.	16ee-/L	.	.
.	.	.	.	.	.	16b-\JJyy	.	16b-\JJ	.	.	.	16cc/J	.	.
4r	.	.	.	4e-\)	.	8g/Lyy	.	8g/L	.	4rcyy	4r	8g/	4rcyy	.
.	.	.	.	.	.	8a-/J)yy	.	8a-/J)	.	.	.	8a-/J)	.	.
*	*	*	*	*	*	*	*	*	*	*	*	*v	*v	*
=43	=43	=43	=43	=43	=43	=43	=43	=43	=43	=43	=43	=43	=43
2.r	.	(>2G\	.	2B-/	.	(>8b-\L	.	(>8b-\L	.	[>2B- 2G/	2.r	(>2b- 2e-/	.
.	.	.	.	.	.	8ee-\	.	8ee-\	.	.	.	.	.
.	.	.	.	.	.	8gg\)	.	8gg\	.	.	.	.	.
.	.	.	.	.	.	8b-\J	.	8bb-\J)	.	.	.	.	.
.	.	4D\	.	4f\	.	[<4b-/	.	8.bb-^>\L	.	4B-_> 4D/	.	4f/	.
!	!	!	!	!LO:TX:a:t=(×)	!	!	!	!	!	!	!	!	!
.	.	.	.	.	.	.	.	16aa-\Jk	.	.	.	.	.
=44	=44	=44	=44	=44	=44	=44	=44	=44	=44	=44	=44	=44	=44
!	!	!	!	!LO:TX:t=P:problem=dwa takty zapisane u dołu strony z odsyłaczem (×)	!	!	!	!	!	!	!	!	!
!	!	!	!	!	!	!	!	!LO:TX:b:i:t=di-mi-nu-en-do.:problem=dynamics with line extensions	!LO:HP:b:i:t=di-mi-nu-en-do.:ext=cd	!	!	!	!
2.r	.	4E-/	.	(>4g\	.	8b-/]	.	8.aa-^>\L	>	4B-] 4E-/	2.r	4g/	.
.	.	.	.	.	.	8r	.	.	.	.	.	.	.
.	.	.	.	.	.	.	.	16gg\Jk	.	.	.	.	.
.	.	4BB-/	.	4d\	.	4r	.	8.gg^>\L	.	4A- 4BB-/	.	4d/	.
.	.	.	.	.	.	.	.	16ff\Jk	.	.	.	.	.
.	.	4C/)	.	[>4e-\)	.	4r	.	8.ff^>\L	.	4G 4C/	.	4e-/	.
.	.	.	.	.	.	.	.	16ee-\Jk	.	.	.	.	.
=45	=45	=45	=45	=45	=45	=45	=45	=45	=45	=45	=45	=45	=45
*	*	*	*	*	*	*	*	*	*	*	*	*^	*
2.ryy	.	(<4C-X^</	.	8e-\]	.	2.r	.	8ee-\L	.	4A- 4C-X/	2.rGG	4a-/	4rcyy	.
.	.	.	.	8r	.	.	.	16dd\L	.	.	.	.	.	.
.	.	.	.	.	.	.	.	16ee-\JJ	.	.	.	.	.	.
.	.	4BB-/	.	4r	.	.	.	4.gg^>\	.	4BB-/	.	2g/	4e-\	.
.	.	4BBn/	.	4r	.	.	.	.	.	4BBn/	.	.	4d\	.
.	.	.	.	.	.	.	.	8ff\	.	.	.	.	.	.
=46	=46	=46	=46	=46	=46	=46	=46	=46	=46	=46	=46	=46	=46	=46
2.ryy	.	4C/	.	2.ryy	.	2.r	.	8.ff^>\L	.	4C/	2.rGG	2.g/	4e- 4c\	.
.	.	.	.	.	.	.	.	16ee-\Jk	.	.	.	.	.	.
.	.	4GG/	.	.	.	.	.	8.ee-^>\L	.	4GG/	.	.	4f 4Bn\	.
.	.	.	.	.	.	.	.	16dd\Jk	.	.	.	.	.	.
.	.	4AA-/)	.	.	.	.	.	8.dd^>\L	.	4AA-/	.	.	4c\	.
.	.	.	.	.	.	.	.	16cc\Jk	]	.	.	.	.	.
*	*	*	*	*	*	*	*	*	*	*	*	*v	*v	*
=47	=47	=47	=47	=47	=47	=47	=47	=47	=47	=47	=47	=47	=47
2.ryy	.	(<4FF/	.	2.r	.	2.r	.	8cc\L	.	(>4F (<4FF/	2.rEE	8gL 8e-/	.
.	.	.	.	.	.	.	.	(>16bn\L	.	.	.	8fJ 8d/	.
.	.	.	.	.	.	.	.	16cc\JJ)	.	.	.	.	.
.	.	8GG/)	.	.	.	.	.	4.ee-\	.	4G 4GG/))	.	4e- 4c/)	.
.	.	8r	.	.	.	.	.	.	.	.	.	.	.
.	.	4r	.	.	.	.	.	.	.	8G/	.	8g 8d/	.
.	.	.	.	.	.	.	.	8dd\	.	8r	.	8r	.
=48	=48	=48	=48	=48	=48	=48	=48	=48	=48	=48	=48	=48	=48
*	*	*	*	*^	*	*	*	*	*	*	*	*	*
!	!LO:DY:b	!	!LO:DY:b	!	!	!LO:DY:b	!	!LO:DY:b	!	!LO:DY:b	!	!	!LO:TX:a:t=E:color=red	!
[<2.C/	f	2C 2CC/	f	2e- 2G/	4C/	f	2e- 2G/	f	2cc 2e-/	f	2c 2G/	[>2.C [<2.CC\	2cc 2g 2e-^</	.
.	.	.	.	.	4rDyy	.	.	.	.	.	.	.	.	.
.	.	4C 4CC/	.	4G/	4rDyy	.	4e- 4c/	.	4b-/	.	4G/	.	4b- 4e-/	.
*	*	*	*	*v	*v	*	*	*	*	*	*	*	*	*
=49	=49	=49	=49	=49	=49	=49	=49	=49	=49	=49	=49	=49	=49
*	*	*	*	*	*	*	*	*	*	*	*2\left	*	*
2C/]	.	4C [<4CC'/	.	[<4G-X'/	.	4e- [<4c'/	.	(<4b-/|	.	4G-X/	2C] 2CC\]	(>4b- 4e-/	.
.	.	4C 4CC'/]	.	4G-'/]	.	4e- 4c'/]	.	4an/)|	.	4G-/	.	4an 4e-/)	.
4r	.	4r	.	4r	.	4r	.	4r	.	4r	4rEEyy	4r	.
=50	=50	=50	=50	=50	=50	=50	=50	=50	=50	=50	=50	=50	=50
*	*	*	*	*	*	*	*	*	*	*	*2\right	*	*
2C^>\	.	2C 2CC/	.	2f#X 2An\	.	2cc 2e-^</	.	2ee-^>\	.	2An/	2F#X 2C 2CC\	2ee- 2an 2f#X 2e-/	.
4D\	.	4D\	.	4f# 4A\	.	4a- 4d/	.	4dd 4d/	.	4A 4F#/	4D 4DD\	4dd 4a 4f# 4d/	.
!!LO:PB:g=original
=51	=51	=51	=51	=51	=51	=51	=51	=51	=51	=51	=51	=51	=51
(>4D'\	.	(>4D\|	.	(>4f#X 4An'\	.	(<4a- 4d'/	.	(>4dd\|	.	4An 4F#X/	4D 4DD\	4cc 4an 4f#X 4d/	.
4E-'\)	.	4E-\)|	.	4g 4G'\)	.	4g'/)	.	4cc\)|	.	4G/	4E- 4EE-\	4cc 4g 4c/	.
4r	.	4r	.	4r	.	4r	.	4r	.	4r	4rEEyy	4r	.
*	*	*	*	*	*	*	*	*	*	*v	*v	*	*
=52	=52	=52	=52	=52	=52	=52	=52	=52	=52	=52	=52	=52
*	*	*	*	*^	*	*^	*	*	*	*	*^	*
!	!LO:DY:b:rj	!	!LO:DY:b:rj	!	!	!LO:DY:b:rj	!	!	!LO:DY:b:rj	!	!LO:DY:b:rj	!	!	!	!
2c^>\	ff	2c^>\	ff	(>2cc\ 2e-\	4G\	ff	(>2cc 2e-^>/	4G\	ff	2gg^>\	ff	2C\	(>[>2.gg/	2cc [<2g\	.
.	.	.	.	.	4rDyy	.	.	4rcyy	.	.	.	.	.	.	.
4Bn\	.	4ryy	.	4d\)	4rDyy	.	4g/)	4rcyy	.	(>8dd\L	.	4BBn\	.	4dd 4g\]	.
.	.	.	.	.	.	.	.	.	.	8gg\J)	.	.	.	.	.
*	*	*	*	*v	*v	*	*	*	*	*	*	*	*	*	*
*	*	*	*	*	*	*v	*v	*	*	*	*	*	*	*
=53	=53	=53	=53	=53	=53	=53	=53	=53	=53	=53	=53	=53	=53
(>4B-X\	.	4ryy	.	(>4cc 4en\	.	(<4cc 4en/	.	(>4gg\	.	4BB-X\	4gg/]	4dd-X 4g\	.
4A-X\)	.	4ryy	.	4f\	.	4f/	.	4ff\)	.	4AA-X\	4ff/	4cc 4f\	.
4G\	.	4ryy	.	4e-X\)	.	4g/)	.	(>8cc\L	.	4GG\	8cc/L	4g\	.
.	.	.	.	.	.	.	.	8ee-\J)	.	.	8ee-/J	.	.
=54	=54	=54	=54	=54	=54	=54	=54	=54	=54	=54	=54	=54	=54
2F\	.	2ryy	.	2f^>\	.	2a-^</	.	4.dd-X^>\	.	2FF\	4.dd-X/	2a- 2f\	.
.	.	.	.	.	.	.	.	8cc\	.	.	8cc/	.	.
4G\	.	4ryy	.	4dn\	.	4f/	.	4bn\	.	4GG\	4bn/	4f 4dn\	.
*	*	*	*	*	*	*	*	*	*	*	*v	*v	*
=55	=55	=55	=55	=55	=55	=55	=55	=55	=55	=55	=55	=55
!	!	!	!	!	!LO:HP:b	!	!LO:HP:a	!	!LO:HP:b	!	!	!
4A-\	.	4ryy	.	2c/	>	2e-/	>	2cc\	>	4.AA-\	[>4cc [>4e- [<4c/)	.
!	!LO:HP:a	!	!	!	!	!	!	!	!	!	!	!
(<8AA-/L	>	8ryy	.	.	.	.	.	.	.	.	8cc] 8e-] 8c/]	.
8GG/J	.	8ryy	.	.	.	.	.	.	.	8GG\	8r	.
4GG-X/)	]	4ryy	.	4A-/	]	4c/	]	4e-/	]	4GG-X\	4r	.
=56	=56	=56	=56	=56	=56	=56	=56	=56	=56	=56	=56	=56
*	*	*	*	*	*	*	*	*	*	*^	*	*
!	!LO:DY:a	!	!LO:DY:a	!	!LO:DY:b:rj	!	!LO:DY:b:rj	!	!LO:DY:b:rj	!	!	!	!
2.FF/	pp	2.ryy	pp	(<2A-/	pp	(<2d-X/	pp	(<[<2.a-/	pp	(>2.A- 2.F (<2.AA-/	(<2.FF\	2.r	.
.	.	.	.	4F/)	.	4c/)	.	.	.	.	.	.	.
=57	=57	=57	=57	=57	=57	=57	=57	=57	=57	=57	=57	=57	=57
2.GG/	.	2.ryy	.	2.Dn/	.	2.Bn/	.	4a-/]	.	2.F 2.Dn/))	2GG\)	2.r	.
.	.	.	.	.	.	.	.	2g/)	.	.	.	.	.
.	.	.	.	.	.	.	.	.	.	.	4rEE	.	.
=58	=58	=58	=58	=58	=58	=58	=58	=58	=58	=58	=58	=58	=58
2.C;>/	.	2.GG 2.CC;>/	.	2.E-;>/	.	2.c;>/	.	2.g;>/	.	2.E- 2.C;>/	2.rEE	2.r;>	.
*	*	*	*	*	*	*	*	*	*	*v	*v	*	*
=59	=59	=59	=59	=59	=59	=59	=59	=59	=59	=59	=59	=59
*M6/8	*	*M6/8	*	*M6/8	*	*M6/8	*	*M6/8	*	*M6/8	*M6/8	*
!	!	!	!	!LO:TX:a:i:t=Viola	!	!	!	!	!	!	!	!
!	!	!	!	!LO:TX:t=P:problem=dwa takty zapisane u dołu strony z odsyłaczem (+)	!	!	!	!	!	!	!LO:TX:a:i:t=Andantino	!
!	!	!	!	!LO:TX:a:t=(×)	!	!	!	!	!	!	!	!
2.ryy	.	2.ryy	.	8B-/	.	2.ryy	.	2.ryy	.	2.ryy	2.ryy	.
.	.	.	.	8r	.	.	.	.	.	.	.	.
.	.	.	.	(>8B-/	.	.	.	.	.	.	.	.
.	.	.	.	8e-\)	.	.	.	.	.	.	.	.
.	.	.	.	8r	.	.	.	.	.	.	.	.
.	.	.	.	8e-\	.	.	.	.	.	.	.	.
=60	=60	=60	=60	=60	=60	=60	=60	=60	=60	=60	=60	=60
2.ryy	.	2.ryy	.	8c\	.	2.ryy	.	2.ryy	.	2.ryy	2.ryy	.
.	.	.	.	8r	.	.	.	.	.	.	.	.
.	.	.	.	(>8c\	.	.	.	.	.	.	.	.
.	.	.	.	8d\)	.	.	.	.	.	.	.	.
.	.	.	.	8r	.	.	.	.	.	.	.	.
.	.	.	.	(>8d\	.	.	.	.	.	.	.	.
=61	=61	=61	=61	=61	=61	=61	=61	=61	=61	=61	=61	=61
2.ryy	.	2.ryy	.	8e-\)	.	2.ryy	.	2.ryy	.	2.ryy	2.ryy	.
.	.	.	.	8ryy	.	.	.	.	.	.	.	.
.	.	.	.	8ryy	.	.	.	.	.	.	.	.
.	.	.	.	8ryy	.	.	.	.	.	.	.	.
.	.	.	.	8ryy	.	.	.	.	.	.	.	.
.	.	.	.	8ryy	.	.	.	.	.	.	.	.
!!LO:PB:g=original
=62	=62	=62	=62	=62	=62	=62	=62	=62	=62	=62	=62	=62
!	!	!	!	!	!LO:DY:b	!	!LO:DY:b:rj	!LO:TX:a:i:t=Andantino.	!	!	!LO:TX:a:i:t=Andantino.	!
2.ryy	.	8E-\	pp	8g\	pp	8B-/	pp	2.r	.	2.ryy	2.ryy	.
.	.	8r	.	8r	.	8r	.	.	.	.	.	.
.	.	(>8E-\	.	(>8g\	.	(<8B-/	.	.	.	.	.	.
.	.	8G\)	.	8b-\)	.	8e-/)	.	.	.	.	.	.
.	.	8r	.	8r	.	8r	.	.	.	.	.	.
.	.	(>8G\	.	8b-\	.	(<8e-/	.	.	.	.	.	.
=63	=63	=63	=63	=63	=63	=63	=63	=63	=63	=63	=63	=63
2.ryy	.	8F\)	.	8b-\L	.	8c/)	.	2.r	.	2.ryy	2.ryy	.
.	.	8r	.	8a-\	.	8r	.	.	.	.	.	.
.	.	(>8F\	.	8g\J	.	(<8c/	.	.	.	.	.	.
.	.	8B-\)	.	8a-\	.	8d/)	.	.	.	.	.	.
.	.	8r	.	8r	.	8r	.	.	.	.	.	.
.	.	8B-\	.	8a-\	.	(<8d/	.	.	.	.	.	.
=64	=64	=64	=64	=64	=64	=64	=64	=64	=64	=64	=64	=64
2.ryy	.	(>4E-\	.	(>4g\	.	8e-/)	.	2.r	.	2.r	2.r	.
.	.	.	.	.	.	8r	.	.	.	.	.	.
.	.	8F\	.	8a-\	.	8e-/	.	.	.	.	.	.
.	.	8G\)	.	8b-\)	.	8e-/	.	.	.	.	.	.
.	.	8r	.	8r	.	8r	.	.	.	.	.	.
.	.	8E-\	.	8e-\	.	8e-/	.	.	.	.	.	.
=65	=65	=65	=65	=65	=65	=65	=65	=65	=65	=65	=65	=65
2.ryy	.	4.A-\	.	4.cc\	.	4.e-/	.	2.r	.	2.r	2.r	.
.	.	4c\	.	4g\	.	4e-/	.	.	.	.	.	.
.	.	8r	.	8r	.	8r	.	.	.	.	.	.
=66	=66	=66	=66	=66	=66	=66	=66	=66	=66	=66	=66	=66
2.ryy	.	8F\|	.	8a-'\	.	8c'/	.	2.ryy	.	2.ryy	2.ryy	.
.	.	8r	.	8r	.	8r	.	.	.	.	.	.
.	.	8F\|	.	8a-'\	.	8c'/	.	.	.	.	.	.
.	.	(>4A-^>\	.	(>4cc^>\	.	8c'/	.	.	.	.	.	.
.	.	.	.	.	.	8r	.	.	.	.	.	.
.	.	8F\	.	8a-\)	.	8c'/	.	.	.	.	.	.
=67	=67	=67	=67	=67	=67	=67	=67	=67	=67	=67	=67	=67
2.ryy	.	8G\)	.	(>8g\L	.	8Bn/	.	2.ryy	.	2.ryy	2.ryy	.
.	.	8r	.	8d\)	.	8r	.	.	.	.	.	.
.	.	8G\	.	8g\J	.	8B/	.	.	.	.	.	.
.	.	(>4.A-\	.	(>4f\	.	(<4.c/	.	.	.	.	.	.
.	.	.	.	8e-\)	.	.	.	.	.	.	.	.
=68	=68	=68	=68	=68	=68	=68	=68	=68	=68	=68	=68	=68
2.r	.	8G\)	.	(>8e-\L	.	8B-/)	.	2.r	.	2.r	2.r	.
.	.	8r	.	8g\)	.	8r	.	.	.	.	.	.
.	.	8G\	.	8a-\J	.	(<8B-/	.	.	.	.	.	.
.	.	4G\	.	4b-\	.	8e-/)	.	.	.	.	.	.
.	.	.	.	.	.	8r	.	.	.	.	.	p
!	!LO:DY:b	!	!	!	!	!	!	!	!	!	!	!
.	p	8E-\	.	8e-\	.	8G/	.	.	.	.	.	.
=69	=69	=69	=69	=69	=69	=69	=69	=69	=69	=69	=69	=69
*	*	*	*	*	*	*	*	*	*	*^	*	*
(>4.B-\	.	(>4E-\	.	(>4.g\	.	(<4.e-/	.	4r	.	[>2.B-/	2.rF	4r	.
.	.	8D\)	.	.	.	.	.	8r	.	.	.	8r	.
!	!LO:DY:b:t=p&colon;	!	!	!	!	!	!	!	!LO:DY:b:rj	!	!	!	!
4.A-\)	p	4.D\	.	4.f\)	.	4.d/)	.	(>[<4.b-\	p	.	.	4.b-/	.
=70	=70	=70	=70	=70	=70	=70	=70	=70	=70	=70	=70	=70	=70
*	*	*	*	*	*	*	*	*	*	*	*	*^	*
2.G\	.	2.E-\	.	2.B-/	.	2.e-/	.	8b-\L]	.	2.B-] 2.G/	2.rGG	8b-/L	2.e-\	.
.	.	.	.	.	.	.	.	8cc\)	.	.	.	8cc/	.	.
.	.	.	.	.	.	.	.	8dd\J	.	.	.	8dd/J	.	.
.	.	.	.	.	.	.	.	4ee-\	.	.	.	4ee-/	.	.
.	.	.	.	.	.	.	.	8ee-\	.	.	.	8ee-/	.	.
*	*	*	*	*	*	*	*	*	*	*	*	*v	*v	*
=71	=71	=71	=71	=71	=71	=71	=71	=71	=71	=71	=71	=71	=71
*	*	*	*	*	*	*	*	*	*	*	*^	*	*
2.F\	.	2.C/	.	(<4.A-/	.	2.e-/	.	(>4.ee-\	.	4.A-/	2.F\	2.rGG	(>4.ee-/	.
.	.	.	.	4.c/)	.	.	.	4.a-/)	.	4.c/	.	.	4.a-/)	.
*	*	*	*	*	*	*	*	*	*	*v	*v	*v	*	*
!!LO:PB:g=original
=72	=72	=72	=72	=72	=72	=72	=72	=72	=72	=72	=72	=72
*	*	*	*	*	*	*	*	*	*	*	*^	*
!	!LO:HP:a	!	!LO:HP:a	!	!LO:HP:a	!	!LO:HP:a	!	!LO:HP:b	!	!	!	!
(<4.BB-/	<	(<4.BB-/	<	4.F/	<	4.d/	<	(<4a-/	<	4.F 4.BB-/	4a-/	4.d\	.
.	.	.	.	.	.	.	.	8g/	.	.	8g/	.	.
4.C/)	[	4.C/)	[[	4E-/	.	4e-/	.	4a-/)	.	4E- [<4C/	4.a-/	4e-\	.
.	.	.	.	8c/	[	8a-/	[	8ff\	[	8c 8C/]	.	8f\	.
=73	=73	=73	=73	=73	=73	=73	=73	=73	=73	=73	=73	=73	=73
!	!LO:HP:a	!	!LO:HP:a	!	!LO:HP:a	!	!LO:HP:a	!	!LO:HP:b	!	!	!	!
(>4.D-X\	>	(<4.D-X/	>	(<4.c-X/	>	2.a-/	>]	(>4.ff\	>	4.c-X 4.D-X/	4.a-/	2.f\	.
4.Dn\)	]	4.Dn/)	]	4.B-/)	]	.	.	4b-\)	]	(<[>4.B- 4.Dn/	4b-/	.	.
!	!LO:DY:b	!	!LO:DY:b	!	!LO:DY:b	!	!LO:DY:b	!	!	!	!	!	!
.	pp	.	pp	.	pp	.	pp	8ryy	.	.	8a-/	.	.
=74	=74	=74	=74	=74	=74	=74	=74	=74	=74	=74	=74	=74	=74
!	!	!	!	!	!	!	!	!	!LO:DY:b:rj	!	!	!	!
4E-\	.	4E-\	.	2.e-\	.	2.g/	.	2.b-\	pp	4B-] 4E-/)	4g/	4e-\	.
8r	.	8r	.	.	.	.	.	.	.	8r	8r	8rcyy	.
4r	.	4r	.	.	.	.	.	.	.	4r	4r	4rcyy	.
8r	.	8r	.	.	.	.	.	.	.	8r	8r	8rcyy	.
*	*	*	*	*	*	*	*	*	*	*	*v	*v	*
=75	=75	=75	=75	=75	=75	=75	=75	=75	=75	=75	=75	=75
2.r	.	2.r	.	2.d\	.	2.f/	.	2.b-\	.	2.ryy	2.ryy	.
=76	=76	=76	=76	=76	=76	=76	=76	=76	=76	=76	=76	=76
2.r	.	4r	.	2.c\	.	[<4.e-/	.	[>4.g/	.	2.ryy	2.ryy	.
.	.	8r	.	.	.	.	.	.	.	.	.	.
!	!	!	!LO:DY:b:rj	!	!	!	!	!	!	!	!	!
.	.	4.C/	p	.	.	4e-/]	.	4g/]	.	.	.	.
.	.	.	.	.	.	8f/	.	8f/	.	.	.	.
=77	=77	=77	=77	=77	=77	=77	=77	=77	=77	=77	=77	=77
!	!	!LO:N:vis=1.	!	!	!	!	!	!	!	!	!	!
2.ryy	.	2.GG/	.	4.B-/	.	4.e-/	.	8f/	.	2.ryy	2.ryy	.
.	.	.	.	.	.	.	.	8r	.	.	.	.
.	.	.	.	.	.	.	.	8r	.	.	.	.
.	.	.	.	(>[>4.b-^>\	.	4.B-/	.	4.b-\	.	.	.	.
=78	=78	=78	=78	=78	=78	=78	=78	=78	=78	=78	=78	=78
4r	.	4.FF/	.	8b-\L]	.	[<4.f/	.	4.cc\	.	2.ryy	2.ryy	.
.	.	.	.	8an\)	.	.	.	.	.	.	.	.
8r	.	.	.	8a-X\J	.	.	.	.	.	.	.	.
4.BBn/	.	4.BBn/	.	(>8a-\L	.	4f/]	.	4dd\	.	.	.	.
.	.	.	.	8g\)	.	.	.	.	.	.	.	.
.	.	.	.	8f\J	.	8d/	.	8ee-\	.	.	.	.
=79	=79	=79	=79	=79	=79	=79	=79	=79	=79	=79	=79	=79
4.C/	.	4.C/	.	4a-\	.	4.c/	.	(>4ff\	.	2.ryy	2.ryy	.
.	.	.	.	8g\	.	.	.	8ee-\)	.	.	.	.
4GG/	.	4GG/	.	4b-\	.	4.e-/	.	(>8ee-\L	.	.	.	.
.	.	.	.	.	.	.	.	8dd\)	.	.	.	.
8AA-/	.	8AA-/	.	8a-\	.	.	.	8cc\J	.	.	.	.
=80	=80	=80	=80	=80	=80	=80	=80	=80	=80	=80	=80	=80
2.BB-/	.	2.BB-/	.	(>8g\L	.	4.e-/	.	4b-\	.	2.ryy	2.ryy	.
.	.	.	.	8e-\)	.	.	.	.	.	.	.	.
.	.	.	.	8B-\J	.	.	.	(<16g/LL	.	.	.	.
.	.	.	.	.	.	.	.	16b-/JJ)	.	.	.	.
.	.	.	.	(<4G/	.	(<4c/	.	(<4b-/	.	.	.	.
.	.	.	.	8F/)	.	8d/)	.	8a-/)	.	.	.	.
!!LO:PB:g=original
=81	=81	=81	=81	=81	=81	=81	=81	=81	=81	=81	=81	=81
*	*	*	*	*	*	*	*	*	*	*^	*	*
8E-\@	.	8E-\@	.	8E-/@	.	8e-/@	.	8g/@	.	4.B-/	2.rBB	4.e-/	.
8r@	.	8r@	.	8r@	.	8r@	.	8r@	.	.	.	.	.
8r@	.	8r@	.	8r@	.	8r@	.	8r@	.	.	.	.	.
4r@	.	4r@	.	4r@	.	4r@	.	4r@	.	4.An/	.	4.c/	.
8r@	.	8r@	.	8r@	.	8r@	.	8r@	.	.	.	.	.
=82	=82	=82	=82	=82	=82	=82	=82	=82	=82	=82	=82	=82	=82
2.r	.	2.r	.	2.ryy	.	2.ryy	.	2.ryy	.	4.A-X/	2.rBB	4.d 4.c-X/	.
.	.	.	.	.	.	.	.	.	.	4.G/	.	4.e- 4.B-/	.
=83	=83	=83	=83	=83	=83	=83	=83	=83	=83	=83	=83	=83	=83
2.r	.	2.r	.	2.ryy	.	2.ryy	.	2.ryy	.	4.An 4.F#X/	2.rGG	2.e-/	.
.	.	.	.	.	.	.	.	.	.	4B- 4G/	.	.	.
.	.	.	.	.	.	.	.	.	.	8A-X 8Fn/	.	.	.
=84	=84	=84	=84	=84	=84	=84	=84	=84	=84	=84	=84	=84	=84
2.r	.	2.r	.	2.r	.	2.r	.	2.r	.	4.G/	[<2.BB-\	4.g 4.e-/	.
.	.	.	.	.	.	.	.	.	.	4B-/	.	4.f 4.d/	.
.	.	.	.	.	.	.	.	.	.	8rcyy	.	.	.
=85	=85	=85	=85	=85	=85	=85	=85	=85	=85	=85	=85	=85	=85
!	!LO:DY:b:rj:color=green	!	!LO:DY:b:rj:color=green	!	!LO:DY:b:rj:color=green	!	!LO:DY:b:rj:color=green	!	!LO:DY:b:color=green	!	!	!	!
[<2.BB-^/	p	4.B-\	p	(>4g/	p	8r	p	8r	p	2.rc	2.BB-\_	[>2.b-/	.
!	!	!	!	!	!	!LO:TX:a:i:t=Col V. Im	!	!	!	!	!	!	!
.	.	.	.	.	.	(y>8b-/Lyy	.	(>8b-/L	.	.	.	.	.
.	.	.	.	8a-/)	.	8a-/Jyy	.	8a-/J	.	.	.	.	.
.	.	4A-\	.	(<8g/L	.	8g/Lyy	.	8g/L	.	.	.	.	.
.	.	.	.	8en/	.	8en/yy	.	8en/	.	.	.	.	.
.	.	8ryy	.	8f/J)	.	8f/Jyy	.	8f/J	.	.	.	.	.
=86	=86	=86	=86	=86	=86	=86	=86	=86	=86	=86	=86	=86	=86
2.BB-/_<	.	4.G\	.	4.e-X/&	.	8ee-\Lyy	.	8ee-\L	.	2.rc	2.BB-\_	2.b-/_>	.
.	.	.	.	.	.	8dd\yy	.	8dd\	.	.	.	.	.
.	.	.	.	.	.	8cc\J)yy	.	8cc\J)	.	.	.	.	.
.	.	4.F\	.	4.d/	.	(y>8b-\Lyy	.	(>8b-\L	.	.	.	.	.
.	.	.	.	.	.	8bb-\yy	.	8bb-\	.	.	.	.	.
.	.	.	.	.	.	8aa-\J)yy	.	8aa-\J)	.	.	.	.	.
=87	=87	=87	=87	=87	=87	=87	=87	=87	=87	=87	=87	=87	=87
2.BB-/]	.	4.En\	.	4.c#X/	.	(y>8gg\Lyy	.	(>8gg\L	.	2.ryy	(>2.BB-\]	2.b-/]	.
.	.	.	.	.	.	8ff\yy	.	8ff\	.	.	.	.	.
.	.	.	.	.	.	8gg\J)yy	.	8gg\J)	.	.	.	.	.
.	.	4.F\	.	4.d\	.	(y>8aa-\Lyy	.	(>8aa-\L	.	.	.	.	.
.	.	.	.	.	.	8ff\yy	.	8ff\	.	.	.	.	.
.	.	.	.	.	.	8dd\J)yy	.	8dd\J)	.	.	.	.	.
=88	=88	=88	=88	=88	=88	=88	=88	=88	=88	=88	=88	=88	=88
*	*	*	*	*	*	*	*	*	*	*	*	*^	*
4BB-/	.	4B-\	.	(>8g\L	.	(y<8b-/Lyy	.	(<8b-/L	.	2.rB	4AA-\)	8b-L 8g/	4.rcyy	.
.	.	.	.	8f\	.	8a-/)yy	.	8a-/)	.	.	.	8a- 8f/	.	.
8r	.	8r	.	8e-\J)	.	8g/Jyy	.	8g/J	.	.	8r	8gJ 8e-/	.	.
!LO:ART:color=green	!	!LO:ART:color=green	!	!LO:ART:color=green	!	!LO:ART:color=green	!	!LO:ART:color=green	!	!	!	!	!	!
4.BB-^</	.	4.BB-^</	.	4d^>\	.	(y<4g^</yy	.	(<4g^/	.	.	4.BB-\	(>4g/	4.d\	.
.	.	.	.	8r	.	8f/)yy	.	8f/)	.	.	.	8f/)	.	.
=89	=89	=89	=89	=89	=89	=89	=89	=89	=89	=89	=89	=89	=89	=89
!	!	!	!	!	!	!	!	!LO:TX:t=P:problem=mixed beam	!	!	!	!	!	!LO:DY:rj:color=green
!	!LO:DY:b:rj:color=green	!	!LO:DY:b:color=green	!	!LO:DY:b:color=green	!	!	!	!LO:DY:b:color=green	!	!	!LO:S:color=dodgerblue	!	!
2.E-\	pp	(>4.BB-/	pp	(>8e-\L	pp	4.e-/	.	(>8e-/L	pp	4.G 4.BB-/	[<2.EE-\	(>4.b-/	4.e-\	pp
.	.	.	.	8B-\	.	.	.	8ee-\	.	.	.	.	.	.
.	.	.	.	8G\J	.	.	.	8b-\J)	.	.	.	.	.	.
!	!	!	!	!	!	!LO:ART:color=green	!	!	!	!	!	!	!	!
.	.	4.E-\	.	4.F#X/	.	(<8c^>/L	.	4.an/	.	4.F#X 4.E-/	.	4.an/	8c\L	.
.	.	.	.	.	.	8e-/	.	.	.	.	.	.	8e-\	.
.	.	.	.	.	.	8c/J)	.	.	.	.	.	.	8c\J	.
=90	=90	=90	=90	=90	=90	=90	=90	=90	=90	=90	=90	=90	=90	=90
*	*	*rep	*	*	*	*	*	*	*	*	*	*	*	*
[>2.E-\	.	4.BB-/	.	4.G/	.	4.e-/	.	(>8b-\L	.	4.G 4.BB-/	2.EE-\]	4.b-/	4.e-\	.
.	.	.	.	.	.	.	.	8ee-\	.	.	.	.	.	.
.	.	.	.	.	.	.	.	8b-\J)	.	.	.	.	.	.
!	!	!	!	!	!	!LO:ART:color=green	!	!	!	!	!	!	!	!
.	.	4.E-\)	.	4F#X/)	.	(<8c^>/L	.	4.an/	.	4.F 4.E-/	.	4.an/	8c\L	.
.	.	.	.	.	.	8e-/	.	.	.	.	.	.	8e-\	.
.	.	.	.	8ryy	.	8c/J)	.	.	.	.	.	.	8c\J	.
*	*	*Xrep	*	*	*	*	*	*	*	*	*	*	*	*
!!LO:PB:g=original
=91	=91	=91	=91	=91	=91	=91	=91	=91	=91	=91	=91	=91	=91	=91
*	*	*	*	*	*	*	*	*	*	*	*^	*	*	*
2.E-\_>	.	4.BB-/	.	4.G/	.	(<8e-/L	.	(<8b-/L	.	4.G 4.BB-/	[<2.EE-\	4.ryy	4.b-/	(>8e-\L	.
.	.	.	.	.	.	8B-/	.	8B-/	.	.	.	.	.	8B-\	.
.	.	.	.	.	.	8e-/J)	.	8e-/J)	.	.	.	.	.	8e-\J)	.
.	.	(<8C-X^</L	.	4.F#X/	.	4.e-/	.	4.an/	.	4.F#X/	.	8C-X\L	4.an/	4.e-\	.
.	.	8E-/	.	.	.	.	.	.	.	.	.	8E-\	.	.	.
.	.	8C-/J)	.	.	.	.	.	.	.	.	.	8C-\J	.	.	.
*	*	*	*	*	*	*	*	*	*	*	*v	*v	*	*	*
=92	=92	=92	=92	=92	=92	=92	=92	=92	=92	=92	=92	=92	=92	=92
*	*	*rep	*	*	*	*	*	*	*	*	*	*	*	*
2.E-\]	.	4.BB-/	.	4.ryy	.	(<8e-/L	.	(<8b-/L	.	4.G 4.BB-/	2.EE-\]	4.b-/	8e-\L	.
.	.	.	.	.	.	8B-/	.	8B-/	.	.	.	.	8B-\	.
.	.	.	.	.	.	8e-/J)	.	8e-/J)	.	.	.	.	8e-\J	.
.	.	(<8C-X^</L	.	4.ryy	.	4.e-/	.	4.a-X/	.	8C-X/L	.	4a-X/)	4e-\	.
.	.	8E-/	.	.	.	.	.	.	.	8E-/	.	.	.	.
.	.	8C-/J)	.	.	.	.	.	.	.	8C-/J	.	8raayy	8rcyy	.
*	*	*	*	*	*	*	*	*	*	*	*	*v	*v	*
*	*	*Xrep	*	*	*	*	*	*	*	*	*	*	*
=93	=93	=93	=93	=93	=93	=93	=93	=93	=93	=93	=93	=93	=93
!	!	!	!	!	!	!	!	!	!	!	!	!LO:S:color=dodgerblue	!
2.E-\	.	2E- 2GG/	.	2.E-/	.	2.B-^</	.	2.g 2.G^</	.	(>2.E- (<2.GG/	2.ryy	(>2.g 2.e- 2.B- 2.G/	.
.	.	8ryy	.	.	.	.	.	.	.	.	.	.	.
.	.	8ryy	.	.	.	.	.	.	.	.	.	.	.
=94	=94	=94	=94	=94	=94	=94	=94	=94	=94	=94	=94	=94	=94
2.D\	.	2.D 2.GG/	.	2.D/	.	2.Bn^</	.	2.f 2.G^</	.	(>2.D)) 2.GG/	(<2.D\)	2.f 2.Bn 2.G/	.
=95	=95	=95	=95	=95	=95	=95	=95	=95	=95	=95	=95	=95	=95
2.C/	.	2.E- 2.GG/	.	2.C/	.	2c^</	.	2.e- 2.G/	.	(>2.C 2.GG/)	(2.C\)	2.e- 2.c 2.G/	.
.	.	.	.	.	.	8ryy	.	.	.	.	.	.	.
.	.	.	.	.	.	8ryy	.	.	.	.	.	.	.
=96	=96	=96	=96	=96	=96	=96	=96	=96	=96	=96	=96	=96	=96
2.BB-/	.	2.BB-/	.	2.D/	.	2.G/	.	2.d 2.G/	.	(>2.BB-) 2.GG/	(2.BB-\)	2.d 2.G/	.
=97	=97	=97	=97	=97	=97	=97	=97	=97	=97	=97	=97	=97	=97
2.AAn/	.	2AAn/	.	2.En/	.	2.G/	.	2.c#X^</	.	2.En 2.AA-/)	2AA-\)	2.c#X 2.G/	.
.	.	8ryy	.	.	.	.	.	.	.	.	8rEEyy	.	.
.	.	8ryy	.	.	.	.	.	.	.	.	8rEEyy	.	.
=98	=98	=98	=98	=98	=98	=98	=98	=98	=98	=98	=98	=98	=98
2.E-\	.	2.E-X\	.	2E-X/	.	2.G/	.	2cn^</	.	[>2.G [>2.E-/	2E-X\	2.cn/	.
.	.	.	.	8ryy	.	.	.	8ryy	.	.	8rEEyy	.	.
.	.	.	.	8ryy	.	.	.	8ryy	.	.	8rEEyy	.	.
=99	=99	=99	=99	=99	=99	=99	=99	=99	=99	=99	=99	=99	=99
2.E-\	.	4.E-\	.	4.E-/	.	[<4.G/	.	[<4.B-^</	.	4.G_ 4.E-/_	2EE-\	[<4.B-/	.
.	.	(>4G\	.	(<4G/	.	4G/]	.	4B-/]	.	4G] 4E-/]	.	4B-/]	.
.	.	.	.	.	.	.	.	.	.	.	8rEEyy	.	.
.	.	8E-\)	.	8E-/)	.	8B-/	.	8g/	.	8BB- 8GG/	8rEEyy	8g/)	.
=100	=100	=100	=100	=100	=100	=100	=100	=100	=100	=100	=100	=100	=100
*	*	*	*	*	*	*	*	*	*	*	*	*^	*
2.D;>\	.	2.D;>\	.	2c-X;>\	.	2.A-^<;>/	.	(<[<4.g^;>/	.	2.C-X 2.AA-;>/	2DD\	[>4.g;>/	2c-X 2A-\	.
.	.	.	.	.	.	.	.	4g/]	.	.	.	4g/]	.	.
.	.	.	.	8ryy	.	.	.	.	.	.	8rEEyy	.	8rcyy	.
.	.	.	.	8ryy	.	.	.	8f/)	.	.	8rEEyy	8f/	8rcyy	.
*	*	*	*	*	*	*	*	*	*	*v	*v	*	*	*
*	*	*	*	*	*	*	*	*	*	*	*v	*v	*
!!LO:PB:g=original
=101	=101	=101	=101	=101	=101	=101	=101	=101	=101	=101	=101	=101
4E-\	.	4E-\	.	4B-/	.	4G/	.	4e-/	.	4BB- 4GG 4EE-\	4e- 4G/	.
8r	.	8r	.	8r	.	8r	.	8r	.	8r	8r	.
!	!	!	!	!	!LO:HP:a	!	!LO:HP:a	!	!LO:HP:a	!	!	!
4r	.	4E-\	.	4E-/	<	4e-/	<	4e-/	<	4r	4r	.
8r	.	8G\	.	8G/	.	8g/	.	8g/	.	8r	8r	.
=102	=102	=102	=102	=102	=102	=102	=102	=102	=102	=102	=102	=102
2.r	.	4B-\	.	4B-/	.	4b-\	.	4b-\	.	2.r	2.r	.
.	.	8G\	.	8G/	.	8g\	.	8g\	.	.	.	.
.	.	4e-\	.	4e-\	.	4ee-\	[	4ee-\	[	.	.	.
.	.	8B-\	.	8B-\	[	8b-\	.	8b-\	.	.	.	.
=103	=103	=103	=103	=103	=103	=103	=103	=103	=103	=103	=103	=103
*	*	*	*	*	*	*	*	*	*	*^	*^	*
*	*	*	*	*	*	*	*	*	*	*	*	*	*2\right	*
!	!LO:DY:b:rj	!	!LO:DY:b:rj	!	!LO:DY:b:rj	!	!LO:DY:b:rj	!	!LO:DY:b:rj	!	!	!	!	!LO:DY:rj
[>2.E-\	ff	[>2.E-\	ff	2.e-\	ff	[>2.ee- [>2.g\	ff	[>2.gg 2.b-\	ff	2.e- [>2.B- [>2.G [>2.E-/	2.EE-\	[>2.gg 2.ee-/	2.b- 2.g\	f
=104	=104	=104	=104	=104	=104	=104	=104	=104	=104	=104	=104	=104	=104	=104
*	*	*2\left	*	*	*	*	*	*	*	*	*	*	*	*
2.E-\]	.	2.E-\]	.	4e-\	.	4ee-] 4g\]	.	4gg] 4b-\	.	2.e- 2.B-] 2.G] 2.E-/]	2.EE-\	4gg/]	[<4.g\	.
.	.	.	.	8e-\	.	8ee-\	.	8ee-\	.	.	.	8ee-/	.	.
.	.	.	.	4B-/	.	4b-/	.	4b-/	.	.	.	4cc/	4g\]	.
.	.	.	.	8G/	.	8g/	.	8g/	.	.	.	8g/	8rcyy	.
*	*	*	*	*	*	*	*	*	*	*	*	*v	*v	*
=105	=105	=105	=105	=105	=105	=105	=105	=105	=105	=105	=105	=105	=105
!	!LO:HP:b	!	!LO:HP:b	!	!LO:HP:b	!	!LO:HP:b	!	!LO:HP:b	!	!	!	!
2E-;>\	>	2.EE-;>/	>]	2.B-;>/	>]	2.e- 2.G;>/	>]	2.e- 2.G;>/	>]	2.G 2.E- 2.BB-;>/	2EE-\	2.e-;>/	.
8ryy	]	.	.	.	.	.	.	.	.	.	8rEEyy	.	.
8ryy	.	.	.	.	.	.	.	.	.	.	8rEEyy	.	.
*	*	*	*	*	*	*	*	*	*	*v	*v	*	*
==	==	==	==	==	==	==	==	==	==	==	==	==
*-	*-	*-	*-	*-	*-	*-	*-	*-	*-	*-	*-	*-
!!!system-decoration: [(s1,s2)][(s3,s4,s5,s6,s7)]
!!!RDF**kern: @ = marked note, color=dodgerblue
!!!RDF**kern: & = marked note, color=green
!!!RDF**kern: | = vertical stroke
!!!RDF**kern: > = above
!!!RDF**kern: < = below
!!!EED: Antoni Szymański
!!!EST: 2021-07-20
!!!AIN: 1 bass 1 cello 1 organ 1 viola 2 violn
!!!ENC: Mateusz Solarz
!!!END: 2021-07-09
